X: 1
T: Wiggerts polska
R: hambo-polska
Z: 1997 by John Chambers <jc@trillian.mit.edu>
M: 3/4
L: 1/8
K: G
|: "G"{def}g2 B2 "(D)"c>A | "G"G>F G>B d2 | "C"c>B c>g e>c | "G"B2 B4 \
| "Am"A>B c>d e2 | "D7"d>A F>A d2 | d>c B<c A>F | "G"Gz G4 :|
|: "G7"B2 c2 d2 | "C"e2 e4 | e>g f2 e2 | "G"d<g B4 \
| "Am"A>B c>d e2 | "D7"d>A F>A d2 | d>c B<c A>F | "G"Gz G4 :|
